icons/default/Live.svg

<path
	d="M21.5673 10.2717H14.3317C14.0673 8.97366 12.8173 8.13232 11.5192 8.39674C10.5817 8.58905 9.83654 9.3102 9.64423 10.2717H2.43269C2.19231 10.2717 2.02404 10.464 2 10.7044V20.1996C2 20.44 2.19231 20.6323 2.43269 20.6323H21.5673C21.8077 20.6323 22 20.44 22 20.1996V10.7044C21.976 10.464 21.8077 10.2717 21.5673 10.2717V10.2717ZM12 9.21405C12.8654 9.21405 13.5385 9.91116 13.5385 10.7525C13.5385 11.6179 12.8413 12.291 12 12.291C11.1346 12.291 10.4615 11.5939 10.4615 10.7525C10.4615 9.81501 11.2548 9.21405 12 9.21405ZM21.1587 19.7669H2.86538V11.1131H9.64423C9.83654 12.4112 11.0625 13.3006 12.3606 13.1083C13.3942 12.94 14.1875 12.1467 14.3558 11.1131H21.1346L21.1587 19.7669Z"
	fill="currentColor" />
<path d="M5.60577 14.3582H4.8125V18.2043H7.55289V17.5553H5.60577V14.3582Z" fill="currentColor" />
<path d="M9.09131 14.334H9.88458V18.2042H9.09131V14.334Z" fill="currentColor" />
<path d="M13.0576 17.1946L12.072 14.334H11.2307L12.6009 18.2042H13.4422L14.8364 14.334H13.9951L13.0576 17.1946Z"
	fill="currentColor" />
<path d="M19.1874 17.5551H17.0239V16.4974H18.971V15.8484H17.0239V14.983H19.1153V14.334H16.2307V18.2042H19.1874V17.5551Z"
	fill="currentColor" />
<path
	d="M8.39421 7.14658C8.22594 7.31485 8.22594 7.57927 8.39421 7.74754C8.56248 7.91581 8.8269 7.91581 8.99517 7.74754C10.6538 6.08889 13.3461 6.08889 15.0048 7.74754C15.173 7.91581 15.4375 7.91581 15.6057 7.74754C15.774 7.57927 15.774 7.31485 15.6057 7.14658C13.6105 5.17542 10.3894 5.17542 8.39421 7.14658Z"
	fill="currentColor" />
<path
	d="M7.12005 5.8726C9.81235 3.15625 14.1874 3.15625 16.8797 5.8726C17.0479 6.04087 17.3124 6.04087 17.4806 5.8726C17.6489 5.70433 17.6489 5.4399 17.4806 5.27163C14.4518 2.24279 9.54793 2.24279 6.51909 5.27163C6.35082 5.4399 6.35082 5.70433 6.51909 5.8726C6.73543 6.08894 6.99985 5.96875 7.12005 5.8726V5.8726Z"
	fill="currentColor" />

<path d="M21.567 10.272h-7.235a2.384 2.384 0 0 0-2.813-1.875 2.39 2.39 0 0 0-1.875 1.875H2.433c-.24 0-.409.192-.433.432V20.2c0 .24.192.432.433.432h19.134A.43.43 0 0 0 22 20.2v-9.496c-.024-.24-.192-.432-.433-.432ZM12 9.214c.865 0 1.539.697 1.539 1.538 0 .866-.698 1.539-1.539 1.539a1.534 1.534 0 0 1-1.539-1.539c0-.937.794-1.538 1.539-1.538Zm9.159 10.553H2.865v-8.654h6.78c.192 1.298 1.418 2.188 2.716 1.995a2.398 2.398 0 0 0 1.995-1.995h6.779l.024 8.654Z" fill="currentColor"/><path d="M5.606 14.358h-.793v3.846h2.74v-.649H5.606v-3.197Z" fill="currentColor"/><path d="M9.091 14.334h.794v3.87H9.09v-3.87Z" fill="currentColor"/><path d="m13.058 17.195-.986-2.861h-.841l1.37 3.87h.841l1.394-3.87h-.84l-.938 2.86Z" fill="currentColor"/><path d="M19.187 17.555h-2.163v-1.058h1.947v-.649h-1.947v-.865h2.091v-.649h-2.884v3.87h2.956v-.649Z" fill="currentColor"/><path d="M8.394 7.147a.42.42 0 0 0 0 .6.42.42 0 0 0 .601 0 4.251 4.251 0 0 1 6.01 0 .42.42 0 0 0 .6 0 .42.42 0 0 0 0-.6 5.136 5.136 0 0 0-7.21 0Z" fill="currentColor"/><path d="M7.12 5.873a6.863 6.863 0 0 1 9.76 0 .42.42 0 0 0 .6 0 .42.42 0 0 0 0-.601 7.748 7.748 0 0 0-10.96 0 .42.42 0 0 0 0 .6c.215.217.48.097.6 0Z" fill="currentColor"/>
